build/images/icons/advantages-5.svg

<svg width="40" height="40" viewBox="0 0 40 40" fill="none" xmlns="http://www.w3.org/2000/svg">
<g clip-path="url(#clip0)">
<path d="M33.0128 26.4428C30.9849 24.66 28.3366 23.3346 25.3895 22.603C25.5171 22.5248 25.6436 22.4448 25.7683 22.3613C28.0405 20.841 29.5453 18.6298 29.9753 16.2622C30.8786 16.0343 31.6682 15.4189 32.162 14.5314C32.8036 13.3784 32.8269 12.0041 32.223 10.9449C32.0827 10.6991 31.8215 10.5473 31.5385 10.5473C31.5383 10.5473 31.538 10.5473 31.5377 10.5473L30.1507 10.5487C30.2482 7.52336 29.4063 4.95578 27.6924 3.08453C25.8971 1.1243 23.1584 0 20.1785 0C17.5789 0 15.0059 0.860078 13.1194 2.35977C10.9907 4.05188 9.81835 6.4782 9.81835 9.19187V10.5495H8.47937C8.19671 10.5495 7.9357 10.701 7.79538 10.9464C7.17429 12.033 7.1896 13.4299 7.83531 14.592C8.31734 15.4595 9.06499 16.0451 9.94335 16.265C10.2888 18.1902 11.3437 19.9955 12.9994 21.4541C13.492 21.888 14.0229 22.2754 14.5812 22.6125C13.0617 22.9891 11.6278 23.5215 10.2982 24.2065C9.9114 24.4058 9.75937 24.8809 9.95866 25.2677C10.0984 25.5391 10.374 25.6949 10.6597 25.6949C10.7812 25.6949 10.9044 25.6667 11.0198 25.6073C12.7187 24.732 14.6084 24.1259 16.6442 23.7999L17.7759 26.8949L16.0274 36.0305C16.0009 36.1691 16.012 36.3123 16.0598 36.4452L16.7423 38.3434C14.0625 38.2002 11.4307 37.8659 8.92351 37.3521V33.8384C8.92351 33.4033 8.57077 33.0505 8.1357 33.0505C7.70054 33.0505 7.34788 33.4033 7.34788 33.8384V37.0008C6.1539 36.7139 4.99234 36.3866 3.8739 36.0178C4.06687 33.4991 4.90859 31.2656 6.37999 29.3717C6.64695 29.0281 6.58476 28.5331 6.24124 28.2663C5.89757 27.9991 5.40273 28.0614 5.13577 28.405C3.34492 30.7102 2.37952 33.4484 2.2664 36.5436C2.25374 36.8898 2.46859 37.2035 2.79593 37.3169C7.30765 38.879 12.5152 39.7962 17.8556 39.9698C17.8564 39.9698 17.8572 39.9698 17.8579 39.9698C18.5514 39.9937 19.2762 40.0035 20.0013 39.9989C20.1179 39.9996 20.2347 40 20.3515 40C20.9587 40 21.5612 39.9898 22.1427 39.9698C22.1434 39.9698 22.1441 39.9698 22.1448 39.9698C27.4877 39.7962 32.6954 38.8789 37.2046 37.3169C37.5319 37.2035 37.7468 36.8898 37.7341 36.5438C37.5876 32.5221 35.9551 29.0292 33.0128 26.4428ZM20.8584 26.0413H19.1415L18.4084 24.0366C18.9229 24.1219 19.4406 24.1678 19.9559 24.1709C19.977 24.1711 19.9981 24.1712 20.0192 24.1712C20.5399 24.1712 21.0659 24.1248 21.59 24.037L20.8584 26.0413ZM30.7851 13.7652C30.607 14.0852 30.3729 14.3381 30.1025 14.5123V12.1246L31.0163 12.1237C31.1544 12.638 31.0753 13.2436 30.7851 13.7652ZM11.3941 9.19187C11.3941 4.245 15.9201 1.57578 20.1785 1.57578C22.7176 1.57578 25.0328 2.51359 26.5305 4.14883C27.9684 5.71883 28.6691 7.92102 28.5746 10.5496H21.8965C18.8398 10.5496 16.4455 9.63453 14.5769 7.75211C14.4259 7.60008 14.2235 7.51937 14.0176 7.51937C13.9153 7.51937 13.8121 7.5393 13.7139 7.58031C13.418 7.70398 13.2267 7.99461 13.23 8.31523C13.2375 9.05422 13.0585 9.61359 12.698 9.97766C12.3299 10.3496 11.813 10.4923 11.3941 10.5426V9.19187ZM9.21265 13.8266C8.91577 13.2923 8.84242 12.6631 8.99702 12.1253H9.81843V14.5035C9.57859 14.3407 9.37124 14.112 9.21265 13.8266ZM11.3941 14.8675V12.1255C12.0941 12.067 13.0737 11.8379 13.8178 11.0862C14.1587 10.7419 14.412 10.3288 14.5769 9.85055C16.5621 11.379 18.9712 12.1253 21.8965 12.1253H28.5269V14.8675C28.5269 17.217 27.168 19.5288 24.8916 21.052C23.3889 22.059 21.6422 22.6059 19.9663 22.5952C19.1169 22.5901 18.2819 22.4536 17.4862 22.2088C17.4311 22.1841 17.3732 22.1654 17.3129 22.1538C13.9887 21.0577 11.3941 18.0685 11.3941 14.8675ZM20.0062 38.4232C20.0045 38.4232 20.0029 38.4232 20.0012 38.4232C19.9996 38.4232 19.998 38.4232 19.9963 38.4232C19.4734 38.4264 18.9504 38.4222 18.4408 38.4103L17.6155 36.115L19.2421 27.617H20.7582L22.3847 36.115L21.5595 38.4103C21.0501 38.4222 20.5275 38.4264 20.0062 38.4232ZM32.3724 37.0669V33.8473C32.3724 33.4122 32.0197 33.0595 31.5846 33.0595C31.1496 33.0595 30.7968 33.4122 30.7968 33.8473V37.4075C28.3741 37.8894 25.839 38.2055 23.2579 38.3434L23.9403 36.4452C23.988 36.3124 23.9993 36.1692 23.9727 36.0305L22.2241 26.8949L23.3558 23.7948C29.3184 24.7517 35.5535 28.4205 36.1267 36.0179C34.9213 36.4154 33.6653 36.7646 32.3724 37.0669Z" fill="#EAC57E"/>
<path d="M7.88296 27.5065C8.03366 27.5065 8.18601 27.4634 8.32054 27.3732L8.33374 27.3645C8.69523 27.1224 8.7921 26.633 8.55007 26.2714C8.30804 25.91 7.81874 25.8131 7.4571 26.0551L7.44398 26.0639C7.08241 26.306 6.98554 26.7954 7.22765 27.157C7.3796 27.3839 7.6289 27.5065 7.88296 27.5065Z" fill="#EAC57E"/>
</g>
<defs>
<clipPath id="clip0">
<rect width="40" height="40" fill="white"/>
</clipPath>
</defs>
</svg>

<svg width="40" height="40" fill="none" xmlns="http://www.w3.org/2000/svg"><g clip-path="url(#clip0)" fill="#EAC57E"><path d="M33.013 26.443c-2.028-1.783-4.676-3.108-7.623-3.84.127-.078.254-.158.378-.242 2.273-1.52 3.777-3.731 4.207-6.099.904-.228 1.693-.843 2.187-1.73.642-1.154.665-2.528.061-3.587a.788.788 0 00-.684-.398h-.001l-1.387.002c.097-3.026-.745-5.593-2.459-7.464C25.897 1.125 23.158 0 20.178 0c-2.6 0-5.172.86-7.059 2.36-2.128 1.692-3.3 4.118-3.3 6.832v1.357h-1.34a.788.788 0 00-.684.397c-.62 1.087-.605 2.484.04 3.646.482.867 1.23 1.453 2.108 1.673.346 1.925 1.4 3.73 3.056 5.19.493.433 1.024.82 1.582 1.158a19.66 19.66 0 00-4.283 1.593.788.788 0 00.722 1.401c1.699-.875 3.588-1.481 5.624-1.807l1.132 3.095-1.749 9.136a.788.788 0 00.033.414l.682 1.898a53.243 53.243 0 01-7.818-.99v-3.515a.788.788 0 00-1.576 0v3.163a43.737 43.737 0 01-3.474-.983c.193-2.519 1.035-4.752 2.506-6.646a.788.788 0 10-1.244-.967c-1.791 2.305-2.756 5.043-2.87 8.139a.788.788 0 00.53.773c4.512 1.562 9.72 2.48 15.06 2.653h.002a52.95 52.95 0 002.143.029l.35.001c.608 0 1.21-.01 1.792-.03h.002c5.343-.174 10.55-1.091 15.06-2.653a.788.788 0 00.53-.773c-.147-4.022-1.78-7.515-4.722-10.101zm-12.155-.402h-1.716l-.734-2.004a9.828 9.828 0 001.611.134c.52 0 1.047-.046 1.571-.134l-.732 2.004zm9.927-12.276a2.08 2.08 0 01-.683.747v-2.387l.914-.001c.138.514.06 1.12-.23 1.641zm-19.39-4.573c0-4.947 4.525-7.616 8.784-7.616 2.539 0 4.854.938 6.352 2.573 1.437 1.57 2.138 3.772 2.044 6.4h-6.678c-3.057 0-5.451-.914-7.32-2.797a.788.788 0 00-1.347.563c.008.74-.171 1.299-.532 1.663-.368.372-.885.514-1.304.565V9.192zm-2.182 4.635a2.27 2.27 0 01-.216-1.702h.821v2.379a1.958 1.958 0 01-.605-.677zm2.181 1.04v-2.742c.7-.058 1.68-.287 2.424-1.039.34-.344.594-.757.759-1.235 1.985 1.528 4.394 2.274 7.32 2.274h6.63v2.742c0 2.35-1.359 4.662-3.635 6.185-1.503 1.007-3.25 1.554-4.926 1.543a8.614 8.614 0 01-2.48-.386.786.786 0 00-.173-.055c-3.324-1.096-5.919-4.085-5.919-7.287zm8.612 23.556h-.01a53.031 53.031 0 01-1.555-.013l-.825-2.295 1.626-8.498h1.516l1.627 8.498-.826 2.295c-.509.012-1.032.016-1.553.013zm12.366-1.356v-3.22a.788.788 0 10-1.575 0v3.56a53.365 53.365 0 01-7.54.936l.683-1.898a.788.788 0 00.033-.414l-1.749-9.136 1.132-3.1c5.962.957 12.197 4.625 12.77 12.223a43.97 43.97 0 01-3.754 1.049z"/><path d="M7.883 27.506c.15 0 .303-.043.438-.133l.013-.009a.788.788 0 00-.877-1.309l-.013.009a.788.788 0 00.439 1.442z"/></g><defs><clipPath id="clip0"><path fill="#fff" d="M0 0h40v40H0z"/></clipPath></defs></svg>
